packages/foundations/assets/icons/functional/images/layout/grid_24.svg

<svg width="24" height="24" viewBox="0 0 24 24" fill="none" xmlns="http://www.w3.org/2000/svg">
<g clip-path="url(#clip0_185_1349)">
<path fill-rule="evenodd" clip-rule="evenodd" d="M19.2512 12.9978C20.2165 12.999 20.9988 13.7812 21 14.7464V19.2491C20.9988 20.2143 20.2165 20.9965 19.2512 20.9977H14.7481C13.7829 20.9965 13.0008 20.2142 13 19.2491V14.7464C13.0008 13.7813 13.7829 12.999 14.7481 12.9978H19.2512ZM9.25178 12.9978C10.2171 12.999 10.9992 13.7813 11 14.7464V19.2491C10.9992 20.2142 10.2171 20.9965 9.25178 20.9977H4.74822C3.78293 20.9965 3.00083 20.2142 3 19.2491V14.7464C3.00083 13.7813 3.78293 12.999 4.74822 12.9978H9.25178ZM19 14.9978H15V18.9978H19V14.9978ZM9 14.9978H5V18.9978H9V14.9978ZM19.2512 3.00225C20.2165 3.00349 20.9988 3.78566 21 4.75089V9.25361C20.9988 10.2188 20.2165 11.001 19.2512 11.0023H14.7481C13.7829 11.001 13.0008 10.2187 13 9.25361V4.75089C13.0008 3.78578 13.7829 3.00349 14.7481 3.00225H19.2512ZM9.25178 3.00225C10.2171 3.00349 10.9992 3.78578 11 4.75089V9.25361C10.9992 10.2187 10.2171 11.001 9.25178 11.0023H4.74822C3.78293 11.001 3.00083 10.2187 3 9.25361V4.75089C3.00083 3.78578 3.78293 3.00349 4.74822 3.00225H9.25178ZM19 4.99775H15V8.99775H19V4.99775ZM9 4.99775H5V8.99775H9V4.99775Z" fill="#1A1C1F"/>
</g>
<defs>
<clipPath id="clip0_185_1349">
<rect width="24" height="24" fill="white"/>
</clipPath>
</defs>
</svg>

<svg xmlns="http://www.w3.org/2000/svg" width="24" height="24" fill="none"><g clip-path="url(#a)"><path fill="#1A1C1F" fill-rule="evenodd" d="M19.251 12.998A1.75 1.75 0 0 1 21 14.746v4.503a1.75 1.75 0 0 1-1.749 1.749h-4.503A1.75 1.75 0 0 1 13 19.249v-4.503a1.75 1.75 0 0 1 1.748-1.748zm-10 0A1.75 1.75 0 0 1 11 14.746v4.503a1.75 1.75 0 0 1-1.748 1.749H4.748A1.75 1.75 0 0 1 3 19.249v-4.503a1.75 1.75 0 0 1 1.748-1.748zm9.749 2h-4v4h4zm-10 0H5v4h4zM19.251 3.002A1.75 1.75 0 0 1 21 4.751v4.503a1.75 1.75 0 0 1-1.749 1.748h-4.503A1.75 1.75 0 0 1 13 9.254V4.75a1.75 1.75 0 0 1 1.748-1.749zm-10 0A1.75 1.75 0 0 1 11 4.751v4.503a1.75 1.75 0 0 1-1.748 1.748H4.748A1.75 1.75 0 0 1 3 9.254V4.75a1.75 1.75 0 0 1 1.748-1.749zM19 4.998h-4v4h4zm-10 0H5v4h4z" clip-rule="evenodd"/></g><defs><clipPath id="a"><path fill="#fff" d="M0 0h24v24H0z"/></clipPath></defs></svg>
